styles/1/Numix/256x256/places/default-fileopen.svg

<?xml version="1.0" encoding="UTF-8" standalone="no"?>
<svg
   xmlns:dc="http://purl.org/dc/elements/1.1/"
   xmlns:cc="http://creativecommons.org/ns#"
   xmlns:rdf="http://www.w3.org/1999/02/22-rdf-syntax-ns#"
   xmlns:svg="http://www.w3.org/2000/svg"
   xmlns="http://www.w3.org/2000/svg"
   xmlns:sodipodi="http://sodipodi.sourceforge.net/DTD/sodipodi-0.dtd"
   xmlns:inkscape="http://www.inkscape.org/namespaces/inkscape"
   width="256"
   height="256"
   viewBox="0 0 256 256"
   version="1.1"
   id="svg2992"
   inkscape:version="0.91 r"
   sodipodi:docname="blue-fileopen.svg">
  <metadata
     id="metadata3015">
    <rdf:RDF>
      <cc:Work
         rdf:about="">
        <dc:format>image/svg+xml</dc:format>
        <dc:type
           rdf:resource="http://purl.org/dc/dcmitype/StillImage" />
      </cc:Work>
    </rdf:RDF>
  </metadata>
  <defs
     id="defs3013" />
  <sodipodi:namedview
     pagecolor="#ffffff"
     bordercolor="#666666"
     borderopacity="1"
     objecttolerance="10"
     gridtolerance="10"
     guidetolerance="10"
     inkscape:pageopacity="0"
     inkscape:pageshadow="2"
     inkscape:window-width="1366"
     inkscape:window-height="747"
     id="namedview3011"
     showgrid="false"
     inkscape:zoom="1.84375"
     inkscape:cx="22.237283"
     inkscape:cy="130.16949"
     inkscape:window-x="0"
     inkscape:window-y="21"
     inkscape:window-maximized="1"
     inkscape:current-layer="svg2992" />
  <path
     inkscape:connector-curvature="0"
     id="path2995"
     d="m 24.250937,39.999982 c -4.515612,0.445311 -8.320289,4.710925 -8.249978,9.249975 l 0,157.499573 c -0.05469,4.85937 4.390613,9.30466 9.249975,9.24998 l 205.499446,0 c 4.85937,0.0546 9.30465,-4.39061 9.24997,-9.24998 l 0,-141.499616 c 0.0546,-4.851549 -4.3906,-9.304663 -9.24997,-9.249975 l -78.74979,0 0,-6.749982 c 0.0547,-4.773425 -4.22655,-9.171851 -8.99997,-9.249975 l -117.749686,0 c -0.328123,-0.0156 -0.66406,-0.0156 -0.999997,0 z m 0,0"
     style="fill:#c4905e;fill-opacity:1;fill-rule:nonzero;stroke:none;opacity:0.4" />
  <path
     inkscape:connector-curvature="0"
     id="path2997"
     d="m 32.000916,32.000004 191.999484,0 0,103.999716 -191.999484,0 z m 0,0"
     style="fill:#e8e6cf;fill-opacity:1;fill-rule:nonzero;stroke:none" />
  <path
     inkscape:connector-curvature="0"
     id="path2999"
     d="m 48.000873,115.99978 159.999567,0 0,7.99998 -159.999567,0 z m 0,0"
     style="fill:#787866;fill-opacity:1;fill-rule:nonzero;stroke:none" />
  <path
     inkscape:connector-curvature="0"
     id="path3001"
     d="m 24.250937,111.99979 c -4.515612,0.44531 -8.320289,4.71092 -8.249978,9.24997 l 0,85.49977 c -0.05469,4.85937 4.390613,9.30466 9.249975,9.24998 l 205.499446,0 c 4.85937,0.0546 9.30465,-4.39061 9.24997,-9.24998 l 0,-69.49981 c 0.0546,-4.85155 -4.3906,-9.30466 -9.24997,-9.24998 l -78.74979,0 0,-6.74998 c 0.0547,-4.77342 -4.22655,-9.17185 -8.99997,-9.24997 l -117.749686,0 c -0.328123,-0.0156 -0.66406,-0.0156 -0.999997,0 z m 0,0"
     style="fill:#c4905e;fill-opacity:1;fill-rule:nonzero;stroke:none" />
  <path
     inkscape:connector-curvature="0"
     id="path3003"
     d="m 48.000873,67.999906 159.999567,0 0,7.999979 -159.999567,0 z m 0,0"
     style="fill:#787866;fill-opacity:1;fill-rule:nonzero;stroke:none" />
  <path
     inkscape:connector-curvature="0"
     id="path3005"
     d="m 48.000873,83.999863 159.999567,0 0,7.999979 -159.999567,0 z m 0,0"
     style="fill:#787866;fill-opacity:1;fill-rule:nonzero;stroke:none" />
  <path
     inkscape:connector-curvature="0"
     id="path3007"
     d="m 48.000873,99.99982 159.999567,0 0,7.99998 -159.999567,0 z m 0,0"
     style="fill:#787866;fill-opacity:1;fill-rule:nonzero;stroke:none" />
  <path
     inkscape:connector-curvature="0"
     id="path3009"
     d="m 48.000873,51.99995 159.999567,0 0,7.999978 -159.999567,0 z m 0,0"
     style="fill:#787866;fill-opacity:1;fill-rule:nonzero;stroke:none" />
</svg>

<svg xmlns="http://www.w3.org/2000/svg" xmlns:xlink="http://www.w3.org/1999/xlink" width="256px" height="256px" viewBox="0 0 256 256" version="1.1">
<g id="surface1">
<path style=" stroke:none;fill-rule:nonzero;fill:rgb(76.470588%,55.686275%,36.470588%);fill-opacity:0.4;" d="M 24.25 40.003906 C 19.734375 40.445312 15.925781 44.714844 16 49.253906 L 16 206.75 C 15.945312 211.609375 20.394531 216.054688 25.25 216 L 230.75 216 C 235.609375 216.054688 240.054688 211.609375 240 206.75 L 240 65.253906 C 240.054688 60.394531 235.609375 55.945312 230.75 56.003906 L 152 56.003906 L 152 49.253906 C 152.054688 44.476562 147.773438 40.078125 143 40.003906 L 25.25 40.003906 C 24.917969 39.984375 24.585938 39.984375 24.25 40.003906 Z M 24.25 40.003906 "/>
<path style=" stroke:none;fill-rule:nonzero;fill:rgb(91.764706%,90.588235%,81.960784%);fill-opacity:1;" d="M 32 32 L 224 32 L 224 136 L 32 136 Z M 32 32 "/>
<path style=" stroke:none;fill-rule:nonzero;fill:rgb(47.843137%,47.843137%,40.784314%);fill-opacity:1;" d="M 48 116 L 208 116 L 208 124 L 48 124 Z M 48 116 "/>
<path style=" stroke:none;fill-rule:nonzero;fill:rgb(76.862745%,56.470588%,36.862745%);fill-opacity:1;" d="M 24.25 112.003906 C 19.734375 112.445312 15.925781 116.714844 16 121.253906 L 16 206.75 C 15.945312 211.609375 20.394531 216.054688 25.25 216 L 230.75 216 C 235.609375 216.054688 240.054688 211.609375 240 206.75 L 240 137.253906 C 240.054688 132.394531 235.609375 127.945312 230.75 128.003906 L 152 128.003906 L 152 121.253906 C 152.054688 116.476562 147.773438 112.078125 143 112.003906 L 25.25 112.003906 C 24.917969 111.984375 24.585938 111.984375 24.25 112.003906 Z M 24.25 112.003906 "/>
<path style=" stroke:none;fill-rule:nonzero;fill:rgb(47.843137%,47.843137%,40.784314%);fill-opacity:1;" d="M 48 68 L 208 68 L 208 76 L 48 76 Z M 48 68 "/>
<path style=" stroke:none;fill-rule:nonzero;fill:rgb(47.843137%,47.843137%,40.784314%);fill-opacity:1;" d="M 48 84 L 208 84 L 208 92 L 48 92 Z M 48 84 "/>
<path style=" stroke:none;fill-rule:nonzero;fill:rgb(47.843137%,47.843137%,40.784314%);fill-opacity:1;" d="M 48 100 L 208 100 L 208 108 L 48 108 Z M 48 100 "/>
<path style=" stroke:none;fill-rule:nonzero;fill:rgb(47.843137%,47.843137%,40.784314%);fill-opacity:1;" d="M 48 52 L 208 52 L 208 60 L 48 60 Z M 48 52 "/>
</g>
</svg>
